**kern	**kern	**dynam
*part1	*part1	*part1
*staff2	*staff1	*
*I"Piano	*	*
*clefF4	*clefG2	*
*k[f#c#g#d#a#]	*k[f#c#g#d#a#]	*
=1	=1	=1
4A#^^ 4c#	8eL	.
.	8f#	.
8r	8e	.
(8A# 8c#	8f#	.
4G#) 4Bn	8e	.
.	8f#J	.
=	=	=
4F#^^ 4A#	8eL	.
.	8f#	.
8r	8e	.
(8F# 8A#	8f#	.
4E#X) 4G##X	8e	.
.	8f#J	.
=	=	=
4F#^^ 4A#	8eL	.
.	8f#	.
8r	8e	.
8F# 8A#	8f#	.
4FF# 4F#	8e	.
.	8f#J	.
=	=	=
4EE-X	8gnL	f
.	8e-X	.
4BB-X	8B-X	.
.	8Gn	.
4E-X	8B-	.
.	8e-J	.
=	=	=
4EE-X	8gnL	.
.	8e-X	.
4BB-X	8B-X	.
.	8Gn	.
4E-X	8B-	.
.	8e-J	.
=	=	=
4BBB-X	8fnL	.
.	8dn	.
4FFn	8B-X	.
.	8A-X	.
4BB-X	8B-	.
.	8dJ	.
=	=	=
4BBB-X	8fnL	.
.	8dn	.
4FFn	8B-X	.
.	8A-X	.
4BB-X	8B-	.
.	8dJ	.
=	=	=
*-	*-	*-
!!!system-decoration: {(s1,s2)}
